weather-icons/wi-sunset.svg

<?xml version="1.0" encoding="UTF-8" standalone="no"?>
<svg
   xmlns:dc="http://purl.org/dc/elements/1.1/"
   xmlns:cc="http://creativecommons.org/ns#"
   xmlns:rdf="http://www.w3.org/1999/02/22-rdf-syntax-ns#"
   xmlns:svg="http://www.w3.org/2000/svg"
   xmlns="http://www.w3.org/2000/svg"
   xmlns:sodipodi="http://sodipodi.sourceforge.net/DTD/sodipodi-0.dtd"
   xmlns:inkscape="http://www.inkscape.org/namespaces/inkscape"
   width="100px"
   height="100px"
   viewBox="0 0 100 100"
   version="1.1"
   id="svg9388"
   sodipodi:docname="wi-sunset.svg"
   inkscape:version="1.0.2 (e86c870879, 2021-01-15)">
  <metadata
     id="metadata9394">
    <rdf:RDF>
      <cc:Work
         rdf:about="">
        <dc:format>image/svg+xml</dc:format>
        <dc:type
           rdf:resource="http://purl.org/dc/dcmitype/StillImage" />
      </cc:Work>
    </rdf:RDF>
  </metadata>
  <defs
     id="defs9392" />
  <sodipodi:namedview
     pagecolor="#ffffff"
     bordercolor="#666666"
     borderopacity="1"
     objecttolerance="10"
     gridtolerance="10"
     guidetolerance="10"
     inkscape:pageopacity="0"
     inkscape:pageshadow="2"
     inkscape:window-width="1920"
     inkscape:window-height="1016"
     id="namedview9390"
     showgrid="false"
     inkscape:zoom="7.94"
     inkscape:cx="25.755668"
     inkscape:cy="50"
     inkscape:window-x="0"
     inkscape:window-y="0"
     inkscape:window-maximized="1"
     inkscape:current-layer="svg9388" />
  <g
     id="surface1">
    <path
       style=" stroke:none;fill-rule:nonzero;fill:rgb(0%,0%,0%);fill-opacity:1;"
       d="M 76.332031,51.566406"
       id="path9410" />
    <path
       style="stroke:none;fill-rule:nonzero;fill:#ff8c00;fill-opacity:1"
       d="m 76.332031,51.566406 c 0,-0.898437 0.300781,-1.632812 0.867188,-2.234375 0.566406,-0.597656 1.335937,-0.898437 2.234375,-0.898437 h 7.734375 c 0.898437,0 1.664062,0.300781 2.296875,0.898437 0.636718,0.601563 0.96875,1.335938 0.96875,2.234375 0,0.898438 -0.332032,1.667969 -0.96875,2.332032 -0.632813,0.667968 -1.398438,1 -2.296875,1 h -7.734375 c -0.867188,0 -1.601563,-0.332032 -2.199219,-0.964844 C 76.632812,53.300781 76.332031,52.5 76.332031,51.566406 Z"
       id="path9408" />
    <path
       style="stroke:none;fill-rule:nonzero;fill:#ff8c00;fill-opacity:1"
       d="m 67.699219,30.800781 c 0,-0.933593 0.300781,-1.699219 0.867187,-2.234375 L 74,23.132812 c 0.535156,-0.667968 1.300781,-1 2.265625,-1 0.902344,0 1.667969,0.332032 2.269531,0.96875 0.597656,0.632813 0.898438,1.398438 0.898438,2.296876 0,0.933593 -0.265625,1.703124 -0.832032,2.269531 l -5.535156,5.433593 c -0.765625,0.632813 -1.53125,0.933594 -2.300781,0.933594 -0.867187,0 -1.597656,-0.300781 -2.199219,-0.933594 C 68,32.464844 67.699219,31.699219 67.699219,30.800781 Z"
       id="path9406" />
    <path
       style="stroke:none;fill-rule:nonzero;fill:#ff8c00;fill-opacity:1"
       d="m 46.800781,22.199219 v -7.765625 c 0,-0.898438 0.332031,-1.667969 0.964844,-2.300782 0.632813,-0.632812 1.402344,-0.964843 2.300781,-0.964843 0.898438,0 1.667969,0.332031 2.300782,0.964843 0.632812,0.632813 0.964843,1.402344 0.964843,2.300782 v 7.734375 c 0,0.898437 -0.332031,1.664062 -0.964843,2.296875 -0.632813,0.636718 -1.402344,0.96875 -2.300782,0.96875 -0.898437,0 -1.667968,-0.332032 -2.300781,-0.96875 -0.664063,-0.632813 -0.964844,-1.363282 -0.964844,-2.265625 z"
       id="path9404" />
    <path
       style="stroke:none;fill-rule:nonzero;fill:#ff8c00;fill-opacity:1"
       d="m 30.265625,51.566406 c 0,3.300782 0.632813,6.234375 1.933594,8.734375 0.199219,0.367188 0.5,0.53125 0.902343,0.53125 h 6.230469 c 0.269531,0 0.433594,-0.06641 0.5,-0.230469 0.06641,-0.167968 -0.03125,-0.367187 -0.230469,-0.601562 -1.96875,-2.464844 -2.96875,-5.300781 -2.96875,-8.433594 0,-3.667968 1.300782,-6.800781 3.933594,-9.367187 2.632813,-2.566407 5.800782,-3.867188 9.5,-3.867188 3.667969,0 6.800782,1.300781 9.433594,3.867188 2.601562,2.601562 3.933594,5.699219 3.933594,9.335937 0,3.132813 -1,5.964844 -2.96875,8.429688 -0.230469,0.234375 -0.296875,0.433594 -0.230469,0.601562 0.06641,0.167969 0.230469,0.234375 0.5,0.234375 H 67 c 0.433594,0 0.699219,-0.167969 0.800781,-0.535156 1.367188,-2.597656 2.066407,-5.53125 2.066407,-8.730469 0,-2.636718 -0.535157,-5.203125 -1.566407,-7.636718 -1.035156,-2.433594 -2.46875,-4.566407 -4.234375,-6.332032 -1.765625,-1.765625 -3.867187,-3.167968 -6.300781,-4.234375 -2.433594,-1.066406 -5,-1.566406 -7.664063,-1.566406 -2.667968,0 -5.234374,0.535156 -7.667968,1.566406 -2.433594,1.066407 -4.535156,2.46875 -6.300782,4.234375 -1.765624,1.765625 -3.167968,3.867188 -4.234374,6.332032 -1.066407,2.46875 -1.632813,5.035156 -1.632813,7.667968 z"
       id="path9402" />
    <path
       style="stroke:none;fill-rule:nonzero;fill:#3a5b46;fill-opacity:1"
       d="m 27.132812,69.632812 c 0,-0.867187 0.332032,-1.632812 1,-2.300781 0.601563,-0.597656 1.367188,-0.898437 2.265626,-0.898437 h 10.734374 c 0.367188,0 0.667969,0.06641 0.933594,0.265625 l 7.832032,7.402343 7.96875,-7.433593 C 58.101562,66.5 58.433594,66.398438 58.832031,66.398438 h 11 c 0.902344,0 1.667969,0.300781 2.300781,0.933593 0.632813,0.632813 0.96875,1.402344 0.96875,2.269531 0,0.898438 -0.335937,1.664063 -0.96875,2.296876 -0.632812,0.636718 -1.398437,0.96875 -2.300781,0.96875 h -8.933593 l -10.464844,9.464843 c -0.398438,0.300781 -0.765625,0.300781 -1.101563,0 L 39.066406,72.867188 h -8.667968 c -0.898438,0 -1.664063,-0.332032 -2.296876,-0.96875 -0.636718,-0.597657 -0.96875,-1.363282 -0.96875,-2.265626 z"
       id="path9400" />
    <path
       style="stroke:none;fill-rule:nonzero;fill:#ff8c00;fill-opacity:1"
       d="m 20.566406,25.367188 c 0,-0.933594 0.265625,-1.699219 0.832032,-2.265626 0.667968,-0.667968 1.433593,-1 2.335937,-1 0.964844,0 1.699219,0.332032 2.265625,1 l 5.398438,5.433594 c 1.535156,1.464844 1.535156,2.964844 0,4.5 -0.632813,0.632813 -1.332032,0.929688 -2.164063,0.929688 -0.734375,0 -1.46875,-0.296875 -2.269531,-0.929688 l -5.53125,-5.402344 c -0.566406,-0.597656 -0.867188,-1.367187 -0.867188,-2.265624 z"
       id="path9398" />
    <path
       style="stroke:none;fill-rule:nonzero;fill:#ff8c00;fill-opacity:1"
       d="m 9.601562,51.566406 c 0,-0.933594 0.332032,-1.667968 1,-2.265625 0.566407,-0.601562 1.332032,-0.867187 2.265626,-0.867187 h 7.699218 c 0.898438,0 1.632813,0.300781 2.234375,0.898437 0.566407,0.601563 0.867188,1.335938 0.867188,2.234375 0,0.933594 -0.300781,1.734375 -0.902344,2.367188 -0.597656,0.632812 -1.332031,0.964844 -2.199219,0.964844 h -7.667968 c -0.898438,0 -1.664063,-0.332032 -2.296876,-1 -0.667968,-0.664063 -1,-1.433594 -1,-2.332032 z"
       id="path9385" />
  </g>
</svg>

<?xml version="1.0" encoding="UTF-8"?>
<svg xmlns="http://www.w3.org/2000/svg" xmlns:xlink="http://www.w3.org/1999/xlink" width="100px" height="100px" viewBox="0 0 100 100" version="1.1">
<g id="surface1">
<path style=" stroke:none;fill-rule:nonzero;fill:rgb(0%,0%,0%);fill-opacity:1;" d="M 9.601562 51.566406 C 9.601562 50.632812 9.933594 49.898438 10.601562 49.300781 C 11.167969 48.699219 11.933594 48.433594 12.867188 48.433594 L 20.566406 48.433594 C 21.464844 48.433594 22.199219 48.734375 22.800781 49.332031 C 23.367188 49.933594 23.667969 50.667969 23.667969 51.566406 C 23.667969 52.5 23.367188 53.300781 22.765625 53.933594 C 22.167969 54.566406 21.433594 54.898438 20.566406 54.898438 L 12.898438 54.898438 C 12 54.898438 11.234375 54.566406 10.601562 53.898438 C 9.933594 53.234375 9.601562 52.464844 9.601562 51.566406 Z M 20.566406 25.367188 C 20.566406 24.433594 20.832031 23.667969 21.398438 23.101562 C 22.066406 22.433594 22.832031 22.101562 23.734375 22.101562 C 24.699219 22.101562 25.433594 22.433594 26 23.101562 L 31.398438 28.535156 C 32.933594 30 32.933594 31.5 31.398438 33.035156 C 30.765625 33.667969 30.066406 33.964844 29.234375 33.964844 C 28.5 33.964844 27.765625 33.667969 26.964844 33.035156 L 21.433594 27.632812 C 20.867188 27.035156 20.566406 26.265625 20.566406 25.367188 Z M 27.132812 69.632812 C 27.132812 68.765625 27.464844 68 28.132812 67.332031 C 28.734375 66.734375 29.5 66.433594 30.398438 66.433594 L 41.132812 66.433594 C 41.5 66.433594 41.800781 66.5 42.066406 66.699219 L 49.898438 74.101562 L 57.867188 66.667969 C 58.101562 66.5 58.433594 66.398438 58.832031 66.398438 L 69.832031 66.398438 C 70.734375 66.398438 71.5 66.699219 72.132812 67.332031 C 72.765625 67.964844 73.101562 68.734375 73.101562 69.601562 C 73.101562 70.5 72.765625 71.265625 72.132812 71.898438 C 71.5 72.535156 70.734375 72.867188 69.832031 72.867188 L 60.898438 72.867188 L 50.433594 82.332031 C 50.035156 82.632812 49.667969 82.632812 49.332031 82.332031 L 39.066406 72.867188 L 30.398438 72.867188 C 29.5 72.867188 28.734375 72.535156 28.101562 71.898438 C 27.464844 71.300781 27.132812 70.535156 27.132812 69.632812 Z M 30.265625 51.566406 C 30.265625 54.867188 30.898438 57.800781 32.199219 60.300781 C 32.398438 60.667969 32.699219 60.832031 33.101562 60.832031 L 39.332031 60.832031 C 39.601562 60.832031 39.765625 60.765625 39.832031 60.601562 C 39.898438 60.433594 39.800781 60.234375 39.601562 60 C 37.632812 57.535156 36.632812 54.699219 36.632812 51.566406 C 36.632812 47.898438 37.933594 44.765625 40.566406 42.199219 C 43.199219 39.632812 46.367188 38.332031 50.066406 38.332031 C 53.734375 38.332031 56.867188 39.632812 59.5 42.199219 C 62.101562 44.800781 63.433594 47.898438 63.433594 51.535156 C 63.433594 54.667969 62.433594 57.5 60.464844 59.964844 C 60.234375 60.199219 60.167969 60.398438 60.234375 60.566406 C 60.300781 60.734375 60.464844 60.800781 60.734375 60.800781 L 67 60.800781 C 67.433594 60.800781 67.699219 60.632812 67.800781 60.265625 C 69.167969 57.667969 69.867188 54.734375 69.867188 51.535156 C 69.867188 48.898438 69.332031 46.332031 68.300781 43.898438 C 67.265625 41.464844 65.832031 39.332031 64.066406 37.566406 C 62.300781 35.800781 60.199219 34.398438 57.765625 33.332031 C 55.332031 32.265625 52.765625 31.765625 50.101562 31.765625 C 47.433594 31.765625 44.867188 32.300781 42.433594 33.332031 C 40 34.398438 37.898438 35.800781 36.132812 37.566406 C 34.367188 39.332031 32.964844 41.433594 31.898438 43.898438 C 30.832031 46.367188 30.265625 48.933594 30.265625 51.566406 Z M 46.800781 22.199219 L 46.800781 14.433594 C 46.800781 13.535156 47.132812 12.765625 47.765625 12.132812 C 48.398438 11.5 49.167969 11.167969 50.066406 11.167969 C 50.964844 11.167969 51.734375 11.5 52.367188 12.132812 C 53 12.765625 53.332031 13.535156 53.332031 14.433594 L 53.332031 22.167969 C 53.332031 23.066406 53 23.832031 52.367188 24.464844 C 51.734375 25.101562 50.964844 25.433594 50.066406 25.433594 C 49.167969 25.433594 48.398438 25.101562 47.765625 24.464844 C 47.101562 23.832031 46.800781 23.101562 46.800781 22.199219 Z M 67.699219 30.800781 C 67.699219 29.867188 68 29.101562 68.566406 28.566406 L 74 23.132812 C 74.535156 22.464844 75.300781 22.132812 76.265625 22.132812 C 77.167969 22.132812 77.933594 22.464844 78.535156 23.101562 C 79.132812 23.734375 79.433594 24.5 79.433594 25.398438 C 79.433594 26.332031 79.167969 27.101562 78.601562 27.667969 L 73.066406 33.101562 C 72.300781 33.734375 71.535156 34.035156 70.765625 34.035156 C 69.898438 34.035156 69.167969 33.734375 68.566406 33.101562 C 68 32.464844 67.699219 31.699219 67.699219 30.800781 Z M 76.332031 51.566406 C 76.332031 50.667969 76.632812 49.933594 77.199219 49.332031 C 77.765625 48.734375 78.535156 48.433594 79.433594 48.433594 L 87.167969 48.433594 C 88.066406 48.433594 88.832031 48.734375 89.464844 49.332031 C 90.101562 49.933594 90.433594 50.667969 90.433594 51.566406 C 90.433594 52.464844 90.101562 53.234375 89.464844 53.898438 C 88.832031 54.566406 88.066406 54.898438 87.167969 54.898438 L 79.433594 54.898438 C 78.566406 54.898438 77.832031 54.566406 77.234375 53.933594 C 76.632812 53.300781 76.332031 52.5 76.332031 51.566406 Z M 76.332031 51.566406 "/>
</g>
</svg>
